X: 43330
T: Workers Holiday
R: reel
M: 4/4
K: Dmajor
A|:dcBA de f2|defd ecAG|EFGA FDAG|Bcde fafe:|
|:d2dc Bcde|fafd fdBd|egeB bfdf|afdf gece|
dcde fgfe|fafd fdBd|g2 (3gfe dcBA|
[1c2 (3cBA AGAc:|2 c2 (3cBA AGFE||

